X: 138
P: Longways for as many as will
M: C|
L: 1/8
K: Dm
[|\
g2e2 e2g2 | f2d2 (de) (fd) | e2 A4 fg | a2f2 f2a2 | g2f2 ( ef) (ge) | f2(ed) (e2(d^c) | d4- d4 |]

